X:800
T: Spring at Last!
C: BB
R: jig
Q: 1/8=320
M: 6/8
L: 1/8
K: D
B | "D"AFA "Bm"dBd | "A"ece "G"gfg | "D"fga "Em"bge | "D"afd "A"ecA |
"D"AFA "Bm"dBd | "A"ece "G"gfg | "D"fed "G"gab | "A"ecA "D"d2 :|
e|"G"gab "D"a2 f | "Em"gee "D"fdd | "G"gBB "A"cee | "Bm"dcB "A"A2 B |
"D"AFA "Bm"dBd | "A"ece "G"gfg | "D"fdA "Em7"Bed |"A"cBc "D"d2 :|
%%%%%%%%%%%%%%%%%%%%%%%%%%%%%%%%%%%%%%%%%%%
